source/img/travel-icon.svg

<svg width="145" height="110" viewBox="0 0 145 110" fill="none" xmlns="http://www.w3.org/2000/svg">
<path d="M143.71 55.1391C148.542 72.9401 139.446 84.5249 122.392 98.3702C116.139 103.739 98.4021 113.346 77.4823 108.825C51.3325 103.174 61.8495 91.0237 43.0898 74.0704C24.3302 57.117 41.3844 16.994 61.8495 8.23479C82.3145 -0.524445 106.19 -4.76278 122.392 8.23479C138.593 21.2324 138.878 37.3381 143.71 55.1391Z" fill="#F4FBFF"/>
<path d="M6.37618 99.5136C9.1036 104.771 13.5083 105.149 17.2584 106.303C17.5187 106.383 17.7996 106.246 17.8791 105.985C19.5078 100.631 17.1035 94.1153 13.0695 91.06C9.80872 88.8248 5.51435 89.0155 4.19201 89.1384C3.95477 89.1604 3.77992 89.3526 3.78175 89.5911C3.79157 90.8673 4.02213 94.9758 6.37618 99.5136Z" fill="#AAF0D1"/>
<path d="M12.8872 94.722C12.0675 100.463 14.7954 103.005 16.7616 105.818C16.9366 106.068 17.2914 106.117 17.5089 105.904C21.3113 102.174 22.9776 95.5098 21.7951 90.9278C20.7417 87.4927 17.8424 85.5104 16.7961 84.8897C16.5802 84.7616 16.3118 84.8311 16.1839 85.0467C15.52 86.1652 13.5985 89.7407 12.8872 94.722Z" fill="#FFC7DB"/>
<path d="M24.2847 100.552C22.724 104.526 19.9229 105.198 17.52 106.269C17.2521 106.389 16.9333 106.264 16.8456 105.984C15.6537 102.176 16.9891 97.3077 19.5057 94.7988C21.4722 93.011 24.1408 92.7624 25.1672 92.7364C25.4136 92.7302 25.6099 92.9173 25.6185 93.1637C25.656 94.23 25.6112 97.174 24.2847 100.552Z" fill="#FF689E"/>
<path d="M50.108 46.253L44.9082 38.4159C44.6456 38.0201 44.6976 37.4942 45.0326 37.1576L48.1236 34.0518C48.6105 33.5626 49.4349 33.702 49.7338 34.3241L54.1961 43.6117C54.4078 44.0524 54.2699 44.5815 53.87 44.8627L51.5165 46.5181C51.0561 46.8419 50.4192 46.722 50.108 46.253Z" fill="#FF689E"/>
<path d="M55.4454 45.4989L51.0621 48.5269C50.6268 48.8276 50.501 49.4153 50.7751 49.8678L55.2181 57.2019C55.5013 57.6694 56.1075 57.8229 56.5791 57.5465L59.6709 55.7343C60.0888 55.4893 60.2711 54.9802 60.1036 54.5257L56.952 45.9758C56.7261 45.3629 55.9828 45.1276 55.4454 45.4989Z" fill="#FF689E"/>
<path d="M60.0894 57.0937L55.7265 59.5596C55.2846 59.8093 55.0999 60.3504 55.2969 60.8182L58.8357 69.2229C59.0513 69.7348 59.6427 69.973 60.1529 69.7533L63.8436 68.164C64.3128 67.9619 64.5543 67.4386 64.4035 66.9504L61.5369 57.6692C61.3485 57.0594 60.6449 56.7797 60.0894 57.0937Z" fill="#FF689E"/>
<path d="M65.4679 69.0079L59.0102 71.3674C58.4876 71.5583 58.2213 72.1392 58.4179 72.6598L62.0028 82.1563C62.1901 82.6524 62.732 82.9161 63.2379 82.7572L67.7348 81.3452C68.2066 81.197 68.4993 80.7262 68.4233 80.2375L66.7992 69.7935C66.7024 69.1705 66.0601 68.7915 65.4679 69.0079Z" fill="#FF689E"/>
<path d="M68.9724 82.2166L62.1294 84.3092C61.6002 84.471 61.303 85.0319 61.4663 85.5606L64.3962 95.0465C64.55 95.5446 65.0608 95.8409 65.5696 95.7273L70.7784 94.5642C71.2813 94.452 71.6165 93.9761 71.5529 93.4648L70.2572 83.0494C70.1805 82.433 69.5663 82.0349 68.9724 82.2166Z" fill="#FF689E"/>
<path d="M72.0019 95.4193L63.725 97.2675C63.1768 97.3899 62.8369 97.9397 62.9725 98.4849L65.6246 109.144C65.745 109.628 66.204 109.949 66.7001 109.897L72.325 109.302C72.8337 109.248 73.2198 108.819 73.2198 108.307V96.3953C73.2198 95.7551 72.6266 95.2798 72.0019 95.4193Z" fill="#FF689E"/>
<path d="M15.4 36.7116C17.4602 32.867 23.5626 26.1671 32.5023 26.9478C30.8181 26.5574 27.0609 25.7765 25.506 25.7765C23.5625 25.7765 22.7852 25.7765 18.121 27.7289C14.4684 29.2579 5.29481 34.6166 1.58942 36.808C1.1498 37.068 0.67908 36.5951 0.947103 36.1603C1.87415 34.6565 3.52289 32.0955 6.07158 28.5104C13.8456 17.5751 18.1209 16.4033 22.7852 14.841C26.1865 13.7018 31.5685 15.9374 34.4568 17.5251C34.7978 17.7126 35.2233 17.4693 35.2233 17.0802V15.6221C35.2233 6.63944 37.9441 6.24884 41.0536 3.12442C43.3571 0.809897 49.2866 0.209938 52.2059 0.054419C52.7023 0.0279771 52.9076 0.662399 52.5032 0.951429C49.8114 2.87541 44.0246 7.35024 42.9971 10.9355C42.1119 14.0241 42.3934 16.095 42.6883 17.1482C42.7927 17.5209 43.2375 17.543 43.4292 17.2068C44.3248 15.6359 46.3748 12.0485 47.2726 10.5449C48.4387 8.59216 51.5482 2.7338 64.7637 1.56214C73.6607 0.773346 82.6311 3.80144 87.6444 6.17748C88.1451 6.41483 87.9077 7.12136 87.3566 7.06349C71.3078 5.37841 59.7397 12.495 55.1517 17.8253C54.8071 18.2256 55.2545 18.7072 55.7162 18.4506C61.4904 15.2415 64.7358 15.3392 72.1488 16.4033C78.7536 17.3514 86.631 27.761 89.3969 31.6994C89.6888 32.115 89.2443 32.6207 88.7878 32.398C86.2233 31.1467 81.2781 28.7615 78.7565 27.7289C60.0994 19.1365 48.05 30.4632 43.3858 34.3677C37.8416 39.0087 36.0688 43.5164 35.2233 51.1623C34.5484 57.2656 34.85 66.1161 35.8739 71.8362C35.9696 72.371 35.2382 72.7123 34.9147 72.2758C28.5377 63.6693 25.506 55.9445 25.506 51.1623C25.506 47.6646 27.5674 42.3543 29.3823 38.8153C29.6299 38.3324 29.0382 37.8042 28.6078 38.1347C18.011 46.2741 13.4348 56.77 11.997 63.085C11.8719 63.6346 10.9932 63.6585 10.8947 63.1035C9.38979 54.6207 10.5172 45.8236 15.4 36.7116Z" fill="#AAF0D1"/>
<path d="M103.281 69.7168L106.161 65.3755C106.424 64.9797 106.372 64.4539 106.037 64.1172L104.685 62.7593C104.198 62.2701 103.374 62.4095 103.075 63.0316L100.642 68.0951C100.431 68.5358 100.569 69.0649 100.968 69.3462L101.872 69.9819C102.333 70.3057 102.97 70.1859 103.281 69.7168Z" fill="#FF689E"/>
<path d="M100.118 69.8358L102.182 71.2615C102.617 71.5622 102.743 72.1499 102.469 72.6024L100.055 76.5864C99.7718 77.054 99.1657 77.2075 98.6941 76.931L97.3418 76.1384C96.9239 75.8935 96.7416 75.3843 96.9092 74.9298L98.611 70.3127C98.837 69.6998 99.5802 69.4645 100.118 69.8358Z" fill="#FF689E"/>
<path d="M97.2133 77.0609L99.2567 78.2158C99.6986 78.4656 99.8833 79.0067 99.6863 79.4745L97.7421 84.092C97.5265 84.6039 96.9351 84.8421 96.4249 84.6224L94.7637 83.9071C94.2945 83.705 94.053 83.1817 94.2038 82.6935L95.7658 77.6363C95.9541 77.0266 96.6577 76.7468 97.2133 77.0609Z" fill="#FF689E"/>
<path d="M93.8642 84.4596L97.1327 85.6539C97.6554 85.8448 97.9216 86.4257 97.7251 86.9463L95.7347 92.2187C95.5475 92.7148 95.0055 92.9785 94.4996 92.8196L92.3222 92.1359C91.8503 91.9877 91.5576 91.5169 91.6336 91.0282L92.5329 85.2452C92.6298 84.6222 93.272 84.2432 93.8642 84.4596Z" fill="#FF689E"/>
<path d="M91.6644 92.7159L95.1733 93.789C95.7024 93.9508 95.9996 94.5116 95.8363 95.0404L94.2111 100.302C94.0573 100.8 93.5465 101.097 93.0377 100.983L90.4382 100.403C89.9354 100.29 89.6002 99.8144 89.6638 99.3031L90.3796 93.5488C90.4563 92.9324 91.0704 92.5343 91.6644 92.7159Z" fill="#FF689E"/>
<path d="M89.7946 100.966L94.1575 101.94C94.7057 102.063 95.0456 102.613 94.91 103.158L93.4176 109.156C93.2972 109.64 92.8382 109.961 92.342 109.909L89.4715 109.605C88.9628 109.551 88.5767 109.122 88.5767 108.611V101.942C88.5767 101.302 89.1699 100.827 89.7946 100.966Z" fill="#FF689E"/>
<path d="M100.84 43.7691C103.343 44.5625 107.989 47.4428 108.539 52.8605C108.579 51.8123 108.615 49.4841 108.439 48.5572C108.22 47.3986 108.132 46.9352 106.451 44.3755C105.246 42.5393 101.62 38.305 99.7023 36.0993C99.3675 35.7141 99.7429 35.1707 100.217 35.3606C101.236 35.7697 102.707 36.391 104.627 37.2806C111.964 40.6785 113.139 43.0947 114.589 45.6986C115.588 47.4923 115.008 50.6803 114.426 52.6305C114.315 53.0028 114.635 53.3741 115.016 53.3011L115.534 53.2018C120.838 52.186 121.377 53.7639 123.573 55.2643C125.072 56.2881 126.06 59.3104 126.536 61.1272C126.657 61.5889 126.12 61.911 125.752 61.6068C124.143 60.2739 121.147 57.9413 119.181 57.3062C117.399 56.7307 115.662 57.4104 114.634 57.981C114.254 58.1917 114.375 58.7035 114.803 58.7727C116.333 59.0204 118.998 59.48 119.895 59.8109C121.18 60.2852 124.99 61.4764 127.177 69.2222C128.501 73.9135 128.008 78.9896 127.287 82.3329C127.17 82.8757 126.44 82.7921 126.373 82.2412C125.33 73.7049 120.684 68.1469 117.199 65.7806C116.763 65.4842 116.384 65.9753 116.704 66.3953C118.774 69.1153 119.054 71.0945 119.249 75.3032C119.422 79.0476 114.93 84.3591 112.665 86.7887C112.319 87.1606 111.741 86.8289 111.871 86.3376C112.339 84.5806 113.024 81.9404 113.308 80.5231C116.272 68.429 108.221 62.5267 105.389 60.1877C102.021 57.4074 99.159 56.8603 94.5487 57.2209C91.1898 57.4836 86.5717 58.49 83.311 59.6196C82.7981 59.7973 82.3206 59.1227 82.6949 58.7291C86.8229 54.3888 90.7662 51.9419 93.4498 51.428C95.2528 51.0827 98.049 51.5177 100.257 52.0873C100.782 52.2227 101.19 51.5288 100.775 51.1798C95.5229 46.7603 89.8411 45.1687 86.0369 44.8009C85.477 44.7468 85.2999 43.8561 85.8344 43.6793C90.3803 42.1756 95.3485 42.0286 100.84 43.7691Z" fill="#AAF0D1"/>
</svg>

<svg width="145" height="110" fill="none" xmlns="http://www.w3.org/2000/svg"><path d="M143.71 55.14c4.832 17.8-4.264 29.385-21.318 43.23-6.253 5.369-23.99 14.976-44.91 10.455-26.15-5.651-15.633-17.801-34.392-34.755-18.76-16.953-1.706-57.076 18.76-65.835 20.464-8.76 44.34-12.998 60.542 0 16.201 12.997 16.486 29.103 21.318 46.904z" fill="#F4FBFF"/><path d="M6.376 99.514c2.728 5.257 7.132 5.635 10.882 6.789.26.08.542-.057.621-.318 1.629-5.354-.776-11.87-4.81-14.925-3.26-2.235-7.555-2.044-8.877-1.922a.446.446 0 00-.41.453c.01 1.276.24 5.385 2.594 9.923z" fill="#AAF0D1"/><path d="M12.887 94.722c-.82 5.741 1.908 8.283 3.875 11.096.175.25.53.299.747.086 3.802-3.73 5.469-10.394 4.286-14.976-1.053-3.435-3.953-5.418-4.999-6.038a.442.442 0 00-.612.157c-.664 1.118-2.586 4.694-3.297 9.675z" fill="#FFC7DB"/><path d="M24.285 100.552c-1.561 3.974-4.362 4.646-6.765 5.717-.268.12-.587-.005-.674-.285-1.192-3.808.143-8.676 2.66-11.185 1.966-1.788 4.635-2.037 5.661-2.063a.436.436 0 01.451.428c.038 1.066-.007 4.01-1.333 7.388zm25.823-54.299l-5.2-7.837a1 1 0 01.125-1.258l3.09-3.106a1 1 0 011.61.272l4.463 9.288a1 1 0 01-.326 1.25l-2.353 1.656a1 1 0 01-1.409-.265zm5.337-.754l-4.383 3.028a1 1 0 00-.287 1.34l4.443 7.335a1 1 0 001.361.345l3.092-1.813a1 1 0 00.433-1.208l-3.152-8.55a1 1 0 00-1.507-.477zm4.645 11.595l-4.364 2.466a1 1 0 00-.43 1.258l3.54 8.405a1 1 0 001.317.53l3.69-1.589a1 1 0 00.56-1.214l-2.866-9.28a1 1 0 00-1.448-.576zm5.378 11.914l-6.458 2.36a1 1 0 00-.592 1.292l3.585 9.496a1 1 0 001.235.601l4.497-1.412a1 1 0 00.688-1.108L66.8 69.793a1 1 0 00-1.331-.785zm3.504 13.209l-6.843 2.092a1 1 0 00-.663 1.252l2.93 9.485a1 1 0 001.174.681l5.208-1.163a1 1 0 00.775-1.1L70.257 83.05a1 1 0 00-1.285-.832zm3.03 13.203l-8.277 1.847a1 1 0 00-.753 1.218l2.653 10.659a1 1 0 001.075.753l5.625-.595a1 1 0 00.895-.995V96.395a1 1 0 00-1.218-.976z" fill="#FF689E"/><path d="M15.4 36.712c2.06-3.845 8.163-10.545 17.102-9.764-1.684-.39-5.441-1.172-6.996-1.172-1.944 0-2.72 0-7.385 1.953-3.653 1.529-12.826 6.888-16.532 9.079a.466.466 0 01-.642-.648c.927-1.503 2.576-4.064 5.125-7.65 7.774-10.935 12.049-12.107 16.713-13.669 3.401-1.14 8.784 1.096 11.672 2.684a.516.516 0 00.766-.445v-1.458c0-8.983 2.721-9.373 5.83-12.498C43.358.81 49.288.21 52.207.054c.496-.026.702.608.297.897-2.692 1.924-8.478 6.4-9.506 9.985-.885 3.088-.604 5.159-.309 6.212.105.373.55.395.741.059.896-1.571 2.946-5.159 3.844-6.662 1.166-1.953 4.275-7.811 17.49-8.983 8.898-.789 17.868 2.24 22.881 4.615.501.238.264.944-.287.886-16.05-1.685-27.617 5.432-32.205 10.762-.345.4.102.882.564.626 5.774-3.21 9.02-3.112 16.433-2.048 6.605.948 14.482 11.358 17.248 15.296.292.416-.153.922-.61.699-2.564-1.251-7.509-3.637-10.03-4.67-18.658-8.591-30.707 2.735-35.371 6.64-5.544 4.64-7.317 9.148-8.163 16.794-.675 6.104-.373 14.954.65 20.674.097.535-.635.876-.958.44-6.377-8.607-9.409-16.331-9.409-21.114 0-3.497 2.061-8.808 3.876-12.347.248-.483-.344-1.01-.774-.68-10.597 8.14-15.173 18.635-16.611 24.95-.125.55-1.004.573-1.102.018-1.505-8.482-.378-17.28 4.505-26.391z" fill="#AAF0D1"/><path d="M103.281 69.717l2.88-4.341a1 1 0 00-.124-1.259l-1.352-1.358a1 1 0 00-1.61.273l-2.433 5.063c-.211.44-.073.97.326 1.251l.904.636a1 1 0 001.409-.265zm-3.163.119l2.064 1.425a1 1 0 01.287 1.341l-2.414 3.984a1 1 0 01-1.36.345l-1.353-.793a1 1 0 01-.433-1.208l1.702-4.617a1 1 0 011.507-.477zm-2.905 7.224l2.044 1.156a1 1 0 01.43 1.259l-1.945 4.617a1 1 0 01-1.317.53l-1.661-.715a1 1 0 01-.56-1.213l1.562-5.058a1 1 0 011.447-.575zm-3.349 7.4l3.269 1.194a1 1 0 01.592 1.292l-1.99 5.273a1 1 0 01-1.235.6l-2.178-.683a1 1 0 01-.688-1.108l.899-5.783a1 1 0 011.331-.785zm-2.2 8.256l3.51 1.073a1 1 0 01.662 1.251l-1.625 5.262a1 1 0 01-1.173.681l-2.6-.58a1 1 0 01-.774-1.1l.716-5.754a1 1 0 011.284-.833zm-1.869 8.25l4.362.974a1 1 0 01.753 1.218l-1.492 5.998a1 1 0 01-1.076.753l-2.87-.304a1 1 0 01-.895-.994v-6.669a1 1 0 011.218-.976z" fill="#FF689E"/><path d="M100.84 43.77c2.503.792 7.149 3.673 7.699 9.09.04-1.048.076-3.376-.1-4.303-.219-1.158-.307-1.622-1.988-4.181-1.205-1.837-4.831-6.071-6.749-8.277-.334-.385.04-.928.515-.738 1.019.409 2.49 1.03 4.41 1.92 7.337 3.398 8.512 5.814 9.962 8.418.999 1.793.419 4.981-.163 6.931-.111.373.209.744.59.671l.518-.1c5.304-1.015 5.843.563 8.039 2.063 1.499 1.024 2.487 4.046 2.963 5.863.121.462-.416.784-.784.48-1.609-1.333-4.605-3.666-6.571-4.3-1.782-.576-3.519.103-4.547.674-.38.21-.259.722.169.792 1.53.247 4.195.707 5.092 1.038 1.285.474 5.095 1.665 7.282 9.411 1.324 4.692.831 9.768.11 13.11-.117.544-.847.46-.914-.09-1.043-8.537-5.689-14.095-9.174-16.461-.436-.297-.815.194-.495.614 2.07 2.72 2.35 4.7 2.545 8.908.173 3.745-4.319 9.056-6.584 11.486-.346.372-.924.04-.794-.451.468-1.757 1.153-4.398 1.437-5.815 2.964-12.094-5.087-17.996-7.919-20.335-3.368-2.78-6.23-3.328-10.84-2.967-3.36.263-7.977 1.269-11.238 2.399-.513.177-.99-.497-.616-.89 4.128-4.341 8.071-6.788 10.755-7.302 1.803-.345 4.599.09 6.807.66.525.135.933-.56.518-.908-5.252-4.42-10.934-6.011-14.738-6.38-.56-.053-.737-.944-.203-1.12 4.546-1.504 9.514-1.651 15.006.09z" fill="#AAF0D1"/></svg>
